img/credit-card.svg

<svg width="42" height="39" viewBox="0 0 42 39" fill="none" xmlns="http://www.w3.org/2000/svg">
<g filter="url(#filter0_dd_462_1394)">
<path d="M13.5 7.08334V5.83334C13.5 4.91286 14.2462 4.16667 15.1667 4.16667H26.8333C27.7538 4.16667 28.5 4.91286 28.5 5.83334V7.08334M13.5 7.08334H28.5M13.5 7.08334V14.1667C13.5 15.0871 14.2462 15.8333 15.1667 15.8333H26.8333C27.7538 15.8333 28.5 15.0871 28.5 14.1667V7.08334M16 13.3333H19.3333" stroke="#686B6E" stroke-width="1.5" stroke-linecap="round"/>
</g>
<defs>
<filter id="filter0_dd_462_1394" x="-1" y="-2" width="44" height="44" filterUnits="userSpaceOnUse" color-interpolation-filters="sRGB">
<feFlood flood-opacity="0" result="BackgroundImageFix"/>
<feColorMatrix in="SourceAlpha" type="matrix" values="0 0 0 0 0 0 0 0 0 0 0 0 0 0 0 0 0 0 127 0" result="hardAlpha"/>
<feMorphology radius="4" operator="erode" in="SourceAlpha" result="effect1_dropShadow_462_1394"/>
<feOffset dy="4"/>
<feGaussianBlur stdDeviation="3"/>
<feColorMatrix type="matrix" values="0 0 0 0 0.407843 0 0 0 0 0.419608 0 0 0 0 0.431373 0 0 0 0.16 0"/>
<feBlend mode="normal" in2="BackgroundImageFix" result="effect1_dropShadow_462_1394"/>
<feColorMatrix in="SourceAlpha" type="matrix" values="0 0 0 0 0 0 0 0 0 0 0 0 0 0 0 0 0 0 127 0" result="hardAlpha"/>
<feMorphology radius="3" operator="erode" in="SourceAlpha" result="effect2_dropShadow_462_1394"/>
<feOffset dy="10"/>
<feGaussianBlur stdDeviation="7.5"/>
<feColorMatrix type="matrix" values="0 0 0 0 0.407843 0 0 0 0 0.419608 0 0 0 0 0.431373 0 0 0 0.16 0"/>
<feBlend mode="normal" in2="effect1_dropShadow_462_1394" result="effect2_dropShadow_462_1394"/>
<feBlend mode="normal" in="SourceGraphic" in2="effect2_dropShadow_462_1394" result="shape"/>
</filter>
</defs>
</svg>

<svg width="42" height="39" fill="none" xmlns="http://www.w3.org/2000/svg"><g filter="url(#a)"><path d="M13.5 7.083v-1.25c0-.92.746-1.666 1.667-1.666h11.666c.92 0 1.667.746 1.667 1.666v1.25m-15 0h15m-15 0v7.084c0 .92.746 1.666 1.667 1.666h11.666c.92 0 1.667-.746 1.667-1.666V7.083M16 13.333h3.333" stroke="#686B6E" stroke-width="1.5" stroke-linecap="round"/></g><defs><filter id="a" x="-1" y="-2" width="44" height="44" filterUnits="userSpaceOnUse" color-interpolation-filters="sRGB"><feFlood flood-opacity="0" result="BackgroundImageFix"/><feColorMatrix in="SourceAlpha" values="0 0 0 0 0 0 0 0 0 0 0 0 0 0 0 0 0 0 127 0" result="hardAlpha"/><feMorphology radius="4" in="SourceAlpha" result="effect1_dropShadow_462_1394"/><feOffset dy="4"/><feGaussianBlur stdDeviation="3"/><feColorMatrix values="0 0 0 0 0.407843 0 0 0 0 0.419608 0 0 0 0 0.431373 0 0 0 0.16 0"/><feBlend in2="BackgroundImageFix" result="effect1_dropShadow_462_1394"/><feColorMatrix in="SourceAlpha" values="0 0 0 0 0 0 0 0 0 0 0 0 0 0 0 0 0 0 127 0" result="hardAlpha"/><feMorphology radius="3" in="SourceAlpha" result="effect2_dropShadow_462_1394"/><feOffset dy="10"/><feGaussianBlur stdDeviation="7.5"/><feColorMatrix values="0 0 0 0 0.407843 0 0 0 0 0.419608 0 0 0 0 0.431373 0 0 0 0.16 0"/><feBlend in2="effect1_dropShadow_462_1394" result="effect2_dropShadow_462_1394"/><feBlend in="SourceGraphic" in2="effect2_dropShadow_462_1394" result="shape"/></filter></defs></svg>
